X: 9710
T: Decrease The Surplus Population
R: reel
M: 4/4
K: Gminor
DBBB AB G2-|GABG cGBA|DBBB ABGB|AFFF cFAF|
DBBB ABG2-|GABG cGBA|BGGG dGBF|FBcA BGGF:|
|:GABG Bd=e2-|ed=ef edcB|GABG Bdf2-|fdfg fdcB|
GABG Bd=e2-|ed=ef ecde|1 fdcB cdc2-|cBcd cBAF:|
[2 fdcg fdfd|cdcB ABGF||

